X:19
T:Second Hornpipe. GS.019
M:4/4
L:1/8
Q:1/2=80
S:George Spencer m/s, Leeds,1831
R:.Hornpipe
O:England
A:Leeds
N:Looks more like a strathspy to me. CGP.
H:1831
Z:vmp.Cherri Graebe
K:A major
â€œ_No time sig. in ms.â€a | e>dc>B A2 A>c | B2 B>c d>ef>a |\
e>dc>B A2 A>c| E>FG>B A2A :|!
a | e2 c>e A>ec>A | B2 B>c d>ef>a |\
e2 c>e A>ec>A | B>EE>G A2 Aa |!
e2 c>e A>ec>A | B2 B>cd>ef>g | \
a>ee>d c>AA>c | B>EE>c A2 A |]

